src/icons/svgs/16/frown.svg

<svg width="16" height="16" viewBox="0 0 16 16" fill="none" xmlns="http://www.w3.org/2000/svg">
<path d="M8 1C4.13359 1 1 4.13359 1 8C1 11.8664 4.13359 15 8 15C11.8664 15 15 11.8664 15 8C15 4.13359 11.8664 1 8 1ZM10.1875 5.8125C10.6712 5.8125 11.0622 6.20352 11.0622 6.6875C11.0622 7.17148 10.6712 7.5625 10.1875 7.5625C9.70379 7.5625 9.31195 7.17148 9.31195 6.6875C9.31195 6.20352 9.70352 5.8125 10.1875 5.8125ZM5.78789 5.8125C6.2716 5.8125 6.66344 6.20352 6.66344 6.6875C6.66344 7.17148 6.2716 7.5625 5.78789 7.5625C5.30418 7.5625 4.91316 7.17148 4.91316 6.6875C4.91316 6.20352 5.32852 5.8125 5.78789 5.8125ZM10.4664 11.7789C9.85391 11.0461 8.9543 10.625 7.97539 10.625C6.99648 10.625 6.12066 11.0466 5.50871 11.7795C5.13957 12.2252 4.46773 11.6645 4.83688 11.2189C5.64023 10.2859 6.78594 9.75 8 9.75C9.21406 9.75 10.3589 10.2854 11.1336 11.2205C11.5082 11.6395 10.8355 12.2246 10.4664 11.7789Z" fill="black"/>
</svg>

<svg width="16" height="16" viewBox="0 0 16 16" xmlns="http://www.w3.org/2000/svg">
    <path d="M8 1a7 7 0 0 0-7 7 7 7 0 0 0 7 7 7 7 0 0 0 7-7 7 7 0 0 0-7-7zm2.188 4.813a.874.874 0 1 1 0 1.75.875.875 0 1 1 0-1.75zm-4.4 0a.875.875 0 1 1-.875.875.89.89 0 0 1 .875-.875zm4.678 5.966a3.221 3.221 0 0 0-2.49-1.154 3.17 3.17 0 0 0-2.467 1.155c-.37.445-1.041-.115-.672-.561A4.169 4.169 0 0 1 8 9.75a4.06 4.06 0 0 1 3.134 1.47c.374.42-.299 1.005-.668.559z"/>
</svg>
